src/img/projects/gdpr-algolia.svg

<svg width="48" height="48" xmlns="http://www.w3.org/2000/svg">
    <g fill-rule="nonzero" fill="none">
        <path d="M-8-8h64v64H-8z"/>
        <path d="M21.92 6.4l1.993-1.457L25.91 6.4l-.76-2.357 2.027-1.453h-2.5L23.913.207 23.15 2.59h-2.497l2.024 1.453L21.92 6.4zM11.597 9.173l1.993-1.456 1.993 1.456-.756-2.356 2.026-1.454h-2.5l-.763-2.386-.763 2.386H10.33l2.023 1.454-.756 2.356zm-5.56 1.374l-.764 2.386H2.777l2.026 1.454-.76 2.356 1.994-1.456 1.996 1.456-.76-2.356 2.024-1.454H6.803l-.766-2.386zm-2.77 15.05l1.993 1.456-.757-2.356 2.024-1.454H4.03l-.763-2.386-.764 2.39-2.496-.004 2.023 1.454-.757 2.356 1.994-1.456zm3.536 7.986l-.766-2.386-.764 2.39-2.496-.004 2.026 1.457-.76 2.353 1.994-1.456 1.996 1.456-.76-2.353 2.024-1.457H6.803zm7.567 7.567l-.763-2.38-.764 2.383-2.5-.003 2.027 1.457-.757 2.353 1.994-1.453L15.6 44.96l-.757-2.353 2.024-1.457H14.37zm10.31 2.743l-.763-2.386-.764 2.39-2.496-.004 2.023 1.457-.757 2.353 1.994-1.456 1.993 1.456-.76-2.353 2.027-1.457H24.68zm10.31-2.743l-.763-2.38-.767 2.383-2.493-.003 2.023 1.457-.76 2.353 1.997-1.453 1.993 1.453-.76-2.353 2.027-1.457H34.99zm7.57-7.567l-.767-2.386-.763 2.39-2.497-.004 2.027 1.457-.76 2.353 1.993-1.456 1.997 1.456-.76-2.353 2.023-1.457H42.56zm5.237-10.37H45.3l-.767-2.386-.763 2.39-2.497-.004L43.3 24.67l-.757 2.353 1.99-1.46 1.997 1.46-.76-2.353 2.027-1.457zM39.8 16.71l1.993-1.453 1.997 1.453-.76-2.353 2.023-1.454H42.56l-.767-2.386-.763 2.39-2.497-.004 2.027 1.454-.76 2.353zM34.257 2.98l-.764 2.387-2.5-.004L33.02 6.82l-.76 2.353 1.997-1.456 1.993 1.456-.757-2.353 2.027-1.457h-2.5l-.763-2.383z" fill="#FFF"/>
    </g>
</svg>

<?xml version="1.0" encoding="UTF-8"?>
<svg width="48px" height="48px" viewBox="0 0 48 48" version="1.1" xmlns="http://www.w3.org/2000/svg" xmlns:xlink="http://www.w3.org/1999/xlink">
    <!-- Generator: Sketch 50.2 (55047) - http://www.bohemiancoding.com/sketch -->
    <title>gdpr-algolia</title>
    <desc>Created with Sketch.</desc>
    <defs></defs>
    <g id="Page-1" stroke="none" stroke-width="1" fill="none" fill-rule="evenodd">
        <g id="gdpr-algolia" transform="translate(-8.000000, -8.000000)" fill-rule="nonzero">
            <polygon id="Shape" points="0 0 64 0 64 64 0 64"></polygon>
            <g id="Group" transform="translate(8.000000, 8.000000)" fill="#FFFFFF">
                <path d="M21.92,6.4 L23.913,4.943 L25.91,6.4 L25.15,4.043 L27.177,2.59 L24.677,2.59 L23.913,0.207 L23.15,2.59 L20.653,2.59 L22.677,4.043 L21.92,6.4 Z M11.597,9.173 L13.59,7.717 L15.583,9.173 L14.827,6.817 L16.853,5.363 L14.353,5.363 L13.59,2.977 L12.827,5.363 L10.33,5.363 L12.353,6.817 L11.597,9.173 Z M6.037,10.547 L5.273,12.933 L2.777,12.933 L4.803,14.387 L4.043,16.743 L6.037,15.287 L8.033,16.743 L7.273,14.387 L9.297,12.933 L6.803,12.933 L6.037,10.547 Z M3.267,25.597 L5.26,27.053 L4.503,24.697 L6.527,23.243 L4.03,23.243 L3.267,20.857 L2.503,23.247 L0.007,23.243 L2.03,24.697 L1.273,27.053 L3.267,25.597 Z M6.803,33.583 L6.037,31.197 L5.273,33.587 L2.777,33.583 L4.803,35.04 L4.043,37.393 L6.037,35.937 L8.033,37.393 L7.273,35.04 L9.297,33.583 L6.803,33.583 Z M14.37,41.15 L13.607,38.77 L12.843,41.153 L10.343,41.15 L12.37,42.607 L11.613,44.96 L13.607,43.507 L15.6,44.96 L14.843,42.607 L16.867,41.15 L14.37,41.15 Z M24.68,43.893 L23.917,41.507 L23.153,43.897 L20.657,43.893 L22.68,45.35 L21.923,47.703 L23.917,46.247 L25.91,47.703 L25.15,45.35 L27.177,43.893 L24.68,43.893 Z M34.99,41.15 L34.227,38.77 L33.46,41.153 L30.967,41.15 L32.99,42.607 L32.23,44.96 L34.227,43.507 L36.22,44.96 L35.46,42.607 L37.487,41.15 L34.99,41.15 Z M42.56,33.583 L41.793,31.197 L41.03,33.587 L38.533,33.583 L40.56,35.04 L39.8,37.393 L41.793,35.937 L43.79,37.393 L43.03,35.04 L45.053,33.583 L42.56,33.583 Z M47.797,23.213 L45.3,23.213 L44.533,20.827 L43.77,23.217 L41.273,23.213 L43.3,24.67 L42.543,27.023 L44.533,25.563 L46.53,27.023 L45.77,24.67 L47.797,23.213 Z M39.8,16.71 L41.793,15.257 L43.79,16.71 L43.03,14.357 L45.053,12.903 L42.56,12.903 L41.793,10.517 L41.03,12.907 L38.533,12.903 L40.56,14.357 L39.8,16.71 Z M34.257,2.98 L33.493,5.367 L30.993,5.363 L33.02,6.82 L32.26,9.173 L34.257,7.717 L36.25,9.173 L35.493,6.82 L37.52,5.363 L35.02,5.363 L34.257,2.98 Z" id="Shape"></path>
            </g>
        </g>
    </g>
</svg>
